X:84
T:Dibdin’s Fancy. WM.083
M:2/4
L:1/8
Q:1/2=90
S:Wm.Mittell’s MS, New Romney,Kent,1799
R:.Country Dance
O:England
A:Kent
N:Dibdin’s sense of humour appears to be breaking out between bars 4 & 5
Z:vmp.Chris Partington
W:Set & change sides & back again,lead down the middle,up again,cast off
W:Allemand
K:G
GDGD|CDDD|EEGB|cAFG|DGDC|DDFD|AFG2|G,2″rest added”z2:|!
|:dBcd|egge|dBAG|c>dc>d|dBcB|dgge|dBAG|d2D2:|

